; HEADER_BLOCK_START
; generated by OrcaSlicer 2.3.0 on 2025-10-30 at 15:36:29
; total layer number: 102
;_GP_TOTAL_LAYER_NUMBER_PLACEHOLDER
; filament_density: 1.24
; filament_diameter: 1.75
; max_z_height: 8.96
; HEADER_BLOCK_END

; THUMBNAIL_BLOCK_START

;
; THUMBNAIL_BLOCK_END

; external perimeters extrusion width = 0.40mm
; perimeters extrusion width = 0.45mm
; infill extrusion width = 0.45mm
; solid infill extrusion width = 0.40mm
; top infill extrusion width = 0.40mm
; support material extrusion width = 0.40mm
; first layer extrusion width = 0.50mm

; external perimeters extrusion width = 0.40mm
; perimeters extrusion width = 0.45mm
; infill extrusion width = 0.45mm
; solid infill extrusion width = 0.40mm
; top infill extrusion width = 0.40mm
; support material extrusion width = 0.40mm
; first layer extrusion width = 0.50mm

; EXECUTABLE_BLOCK_START
M73 P0 R87
M201 X500 Y500 Z100 E5000
M203 X500 Y500 Z10 E50
M204 P5000 R5000 T5000
M205 X10.00 Y10.00 Z0.40 E5.00 ; sets the jerk limits, mm/sec
;TYPE:Custom
M220 S100 ;Reset Feedrate
M221 S100 ;Reset Flowrate
M140 S60 ;Set final bed temp
M104 S220 ;Set final nozzle temp

G28 ;Home
G29 ;Auto bed leveling (create mesh if not already stored)
M420 S1 ;Enable mesh leveling

G92 E0 ;Reset Extruder
G1 Z2.0 F3000 ;Move Z Axis up
G1 X10.1 Y20 Z0.28 F5000.0 ;Move to start position
M190 S60 ;Wait for bed temp to stabilize
M109 S220 ;Wait for nozzle temp to stabilize
G1 X10.1 Y145.0 Z0.28 F1500.0 E15 ;Draw the first line
G1 X10.4 Y145.0 Z0.28 F5000.0 ;Move to side a little
G1 X10.4 Y20 Z0.28 F1500.0 E30 ;Draw the second line
G92 E0  ;Reset Extruder
G1 E-1.0000 F1800 ;Retract a bit
G1 Z2.0 F3000 ;Move Z Axis up
G1 E0.0000 F1800
G90
G21
M83 ; use relative distances for extrusion
; filament start gcode
M106 S0
;LAYER_CHANGE
;Z:0.2
;HEIGHT:0.2
;BEFORE_LAYER_CHANGE
;0.2
G92 E0

G1 E-5 F3600
;_SET_FAN_SPEED_CHANGING_LAYER
M204 S500
; printing object MSRC_case-Lower case.stl id:101468352494016 copy 0
G1 Z.6 F9000
G1 X134.578 Y105.576
G1 Z.6
G1 Z.2
G1 E5 F2400
;TYPE:Support
;WIDTH:0.5
G1 F900
G1 X119.207 Y105.576 E.57251
G1 X119.207 Y97.444 E.30291
G1 X134.578 Y97.444 E.57251
M73 P0 R86
G1 X134.578 Y105.508 E.30035
G1 X134.003 Y105.371 F9000
G1 F900
G1 X134.003 Y97.855 E.27992
G1 X133.495 Y97.855 E.01892
G1 X133.495 Y105.165 E.27226
G1 X132.987 Y105.165 E.01892
G1 X132.987 Y97.855 E.27226
G1 X132.479 Y97.855 E.01892
G1 X132.479 Y105.165 E.27226
G1 X131.972 Y105.165 E.01892
G1 X131.972 Y97.855 E.27226
G1 X131.464 Y97.855 E.01892
G1 X131.464 Y105.165 E.27226
G1 X130.956 Y105.165 E.01892
G1 X130.956 Y97.855 E.27226
G1 X130.448 Y97.855 E.01892
G1 X130.448 Y105.165 E.27226
G1 X129.94 Y105.165 E.01892
G1 X129.94 Y97.855 E.27226
G1 X129.432 Y97.855 E.01892
G1 X129.432 Y105.165 E.27226
G1 X128.924 Y105.165 E.01892
G1 X128.924 Y97.855 E.27226
G1 X128.416 Y97.855 E.01892
G1 X128.416 Y105.165 E.27226
G1 X127.909 Y105.165 E.01892
G1 X127.909 Y97.855 E.27226
G1 X127.401 Y97.855 E.01892
G1 X127.401 Y105.165 E.27226
G1 X126.893 Y105.165 E.01892
G1 X126.893 Y97.855 E.27226
G1 X126.385 Y97.855 E.01892
G1 X126.385 Y105.165 E.27226
G1 X125.877 Y105.165 E.01892
G1 X125.877 Y97.855 E.27226
G1 X125.369 Y97.855 E.01892
G1 X125.369 Y105.165 E.27226
G1 X124.861 Y105.165 E.01892
G1 X124.861 Y97.855 E.27226
G1 X124.354 Y97.855 E.01892
G1 X124.354 Y105.165 E.27226
G1 X123.846 Y105.165 E.01892
G1 X123.846 Y97.855 E.27226
G1 X123.338 Y97.855 E.01892
G1 X123.338 Y105.165 E.27226
G1 X122.83 Y105.165 E.01892
G1 X122.83 Y97.855 E.27226
G1 X122.322 Y97.855 E.01892
G1 X122.322 Y105.165 E.27226
G1 X121.814 Y105.165 E.01892
G1 X121.814 Y97.855 E.27226
G1 X121.306 Y97.855 E.01892
G1 X121.306 Y105.165 E.27226
G1 X120.799 Y105.165 E.01892
G1 X120.799 Y97.855 E.27226
G1 X120.291 Y97.855 E.01892
G1 X120.291 Y105.165 E.27226
G1 X119.783 Y105.165 E.01892
G1 X119.783 Y97.65 E.27992
G1 E-3.5 F3600
;WIPE_START
G1 F900
G1 X119.783 Y98.65 E-1.5
;WIPE_END
G1 Z.6 F9000
G1 X115.243 Y130.06 Z.6
G1 Z.2
G1 E5 F2400
G1 F900
G1 X104.836 Y130.06 E.38761
G1 X104.836 Y117.564 E.46546
G1 X115.243 Y117.564 E.38761
G1 X115.243 Y129.992 E.4629
G1 X114.704 Y129.855 F9000
G1 F900
G1 X114.704 Y117.975 E.44248
G1 X114.196 Y117.975 E.01892
G1 X114.196 Y129.649 E.43481
G1 X113.688 Y129.649 E.01892
G1 X113.688 Y117.975 E.43481
G1 X113.181 Y117.975 E.01892
G1 X113.181 Y129.649 E.43481
G1 X112.673 Y129.649 E.01892
G1 X112.673 Y117.975 E.43481
G1 X112.165 Y117.975 E.01892
G1 X112.165 Y129.649 E.43481
G1 X111.657 Y129.649 E.01892
G1 X111.657 Y117.975 E.43481
G1 X111.149 Y117.975 E.01892
G1 X111.149 Y129.649 E.43481
G1 X110.641 Y129.649 E.01892
G1 X110.641 Y117.975 E.43481
G1 X110.133 Y117.975 E.01892
G1 X110.133 Y129.649 E.43481
G1 X109.625 Y129.649 E.01892
G1 X109.625 Y117.975 E.43481
G1 X109.118 Y117.975 E.01892
G1 X109.118 Y129.649 E.43481
G1 X108.61 Y129.649 E.01892
G1 X108.61 Y117.975 E.43481
G1 X108.102 Y117.975 E.01892
G1 X108.102 Y129.649 E.43481
G1 X107.594 Y129.649 E.01892
G1 X107.594 Y117.975 E.43481
G1 X107.086 Y117.975 E.01892
G1 X107.086 Y129.649 E.43481
G1 X106.578 Y129.649 E.01892
G1 X106.578 Y117.975 E.43481
G1 X106.07 Y117.975 E.01892
G1 X106.07 Y129.649 E.43481
G1 X105.563 Y129.649 E.01892
G1 X105.563 Y117.769 E.44248
G1 E-3.5 F3600
;WIPE_START
G1 F900
G1 X105.563 Y118.769 E-1.5
;WIPE_END
G1 Z.6 F9000
G1 X148.95 Y130.06 Z.6
G1 Z.2
G1 E5 F2400
G1 F900
G1 X138.543 Y130.06 E.38761
G1 X138.543 Y117.564 E.46546
M73 P1 R86
G1 X148.95 Y117.564 E.38761
G1 X148.95 Y129.992 E.4629
G1 X148.223 Y129.855 F9000
G1 F900
G1 X148.223 Y117.975 E.44248
G1 X147.715 Y117.975 E.01892
G1 X147.715 Y129.649 E.43481
G1 X147.208 Y129.649 E.01892
G1 X147.208 Y117.975 E.43481
G1 X146.7 Y117.975 E.01892
G1 X146.7 Y129.649 E.43481
G1 X146.192 Y129.649 E.01892
G1 X146.192 Y117.975 E.43481
G1 X145.684 Y117.975 E.01892
G1 X145.684 Y129.649 E.43481
G1 X145.176 Y129.649 E.01892
G1 X145.176 Y117.975 E.43481
G1 X144.668 Y117.975 E.01892
G1 X144.668 Y129.649 E.43481
G1 X144.16 Y129.649 E.01892
G1 X144.16 Y117.975 E.43481
G1 X143.652 Y117.975 E.01892
G1 X143.652 Y129.649 E.43481
G1 X143.145 Y129.649 E.01892
G1 X143.145 Y117.975 E.43481
G1 X142.637 Y117.975 E.01892
G1 X142.637 Y129.649 E.43481
G1 X142.129 Y129.649 E.01892
G1 X142.129 Y117.975 E.43481
G1 X141.621 Y117.975 E.01892
G1 X141.621 Y129.649 E.43481
G1 X141.113 Y129.649 E.01892
G1 X141.113 Y117.975 E.43481
G1 X140.605 Y117.975 E.01892
G1 X140.605 Y129.649 E.43481
G1 X140.097 Y129.649 E.01892
G1 X140.097 Y117.975 E.43481
G1 X139.59 Y117.975 E.01892
G1 X139.59 Y129.649 E.43481
G1 X139.082 Y129.649 E.01892
G1 X139.082 Y117.769 E.44248
G1 E-3.5 F3600
;WIPE_START
G1 F900
G1 X139.082 Y118.769 E-1.5
;WIPE_END
G1 Z.6 F9000
G1 X117.584 Y107.135 Z.6
G1 Z.2
G1 E5 F2400
;TYPE:Inner wall
;WIDTH:0.388026
G1 F900
G1 X117.056 Y107.403 E.01664
;WIDTH:0.363899
G1 X116.789 Y107.999 E.01709
G1 X116.789 Y107.123 E.02293
G1 X116.949 Y107.123 E.0042
;WIDTH:0.388026
G1 X117.544 Y107.134 E.01671
G1 E-3.5 F3600
;WIPE_START
G1 F900
G1 X117.056 Y107.403 E-.83502
G1 X116.875 Y107.807 E-.66498
;WIPE_END
G1 Z.6 F9000
G1 X136.997 Y107.123 Z.6
G1 Z.2
G1 E5 F2400
;WIDTH:0.363899
G1 F900
G1 X136.997 Y107.999 E.02293
G1 X136.729 Y107.403 E.01709
;WIDTH:0.371682
G1 X136.014 Y107.126 E.02054
G1 X136.957 Y107.123 E.02525
G1 E-3.5 F3600
;WIPE_START
G1 F900
G1 X136.997 Y107.999 E-1.31614
G1 X136.947 Y107.887 E-.18386
;WIPE_END
G1 Z.6 F9000
G1 X131.829 Y112.391 Z.6
G1 Z.2
G1 E5 F2400
;WIDTH:0.499999
G1 F900
G1 X131.829 Y131.848 E.72471
G1 X132.057 Y132.533 E.02692
M73 P1 R85
G1 X132.315 Y132.662 E.01072
G1 X121.519 Y132.662 E.40211
G1 X121.729 Y132.533 E.00917
G1 X121.957 Y131.848 E.02692
G1 X121.957 Y112.391 E.72471
G1 X131.789 Y112.391 E.36619
G1 X132.286 Y111.933 F9000
G1 F900
G1 X121.5 Y111.933 E.40173
G1 X121.5 Y131.848 E.74173
G1 X121.363 Y132.259 E.01615
;WIDTH:0.53219
G1 X121.146 Y132.412 E.01059
;WIDTH:0.564381
G1 X120.929 Y132.566 E.01129
G1 X117.771 Y132.566 E.13417
G1 X117.515 Y132.434 E.01225
;WIDTH:0.53219
G1 X117.258 Y132.303 E.01149
;WIDTH:0.538127
G1 X117.182 Y132.19 E.00548
;WIDTH:0.576254
G1 X117.105 Y132.078 E.0059
;WIDTH:0.614381
G1 X117.029 Y131.966 E.00632
G1 X117.029 Y108.205 E1.10648
G1 X117.124 Y108.034 E.0091
;WIDTH:0.576254
G1 X117.22 Y107.864 E.0085
;WIDTH:0.538127
G1 X117.315 Y107.693 E.00789
;WIDTH:0.499999
G1 X117.674 Y107.519 E.01486
G1 X136.014 Y107.519 E.6831
G1 X136.471 Y107.693 E.01819
;WIDTH:0.538126
G1 X136.566 Y107.864 E.00789
;WIDTH:0.576253
G1 X136.662 Y108.034 E.0085
;WIDTH:0.61438
G1 X136.757 Y108.205 E.0091
G1 X136.757 Y131.848 E1.10097
;WIDTH:0.622173
G1 X136.75 Y131.977 E.0061
G1 X136.676 Y132.085 E.00621
;WIDTH:0.581449
G1 X136.602 Y132.194 E.00577
;WIDTH:0.540724
G1 X136.527 Y132.303 E.00533
;WIDTH:0.53219
G1 X136.328 Y132.434 E.00953
;WIDTH:0.564381
G1 X136.128 Y132.566 E.01016
G1 X132.971 Y132.566 E.13414
G1 X132.697 Y132.412 E.01335
;WIDTH:0.53219
G1 X132.423 Y132.259 E.01252
;WIDTH:0.499999
G1 X132.286 Y131.848 E.01615
G1 X132.286 Y111.973 E.74024
G1 X132.743 Y111.476 F9000
;TYPE:Outer wall
G1 F900
G1 X121.043 Y111.476 E.43578
G1 X121.043 Y131.848 E.75876
G1 X120.997 Y131.985 E.00538
G1 X120.814 Y132.076 E.00761
G1 X117.771 Y132.076 E.11334
G1 X117.6 Y131.999 E.00698
G1 X117.543 Y131.848 E.00604
G1 X117.543 Y108.205 E.88061
G1 X117.619 Y108.034 E.00696
G1 X117.771 Y107.976 E.00606
G1 X136.014 Y107.976 E.67948
G1 X136.166 Y108.034 E.00606
G1 X136.243 Y108.205 E.00696
G1 X136.243 Y131.848 E.88061
G1 X136.185 Y131.999 E.00604
G1 X136.014 Y132.076 E.00698
G1 X132.971 Y132.076 E.11334
G1 X132.789 Y131.985 E.00761
G1 X132.743 Y131.848 E.00538
G1 X132.743 Y111.516 E.75727
G1 E-3.5 F3600
;WIPE_START
G1 F900
G1 X131.743 Y111.513 E-1.5
;WIPE_END
G1 Z.6 F9000
G1 X117.584 Y107.135 Z.6
G1 Z.2
G1 E5 F2400
;TYPE:Inner wall
;WIDTH:0.388026
G1 F900
G1 X117.771 Y107.126 E.00529
;WIDTH:0.371682
G1 X136.014 Y107.126 E.48873
G1 X137.386 Y106.891 F9000
;WIDTH:0.499999
G1 F900
G1 X137.386 Y107.283 E.01461
;WIDTH:0.538126
G1 X137.367 Y107.59 E.01242
;WIDTH:0.576253
G1 X137.348 Y107.898 E.01338
;WIDTH:0.61438
G1 X137.329 Y108.205 E.01434
G1 X137.329 Y132.065 E1.1111
G1 X137.348 Y132.253 E.00878
;WIDTH:0.576253
G1 X137.367 Y132.441 E.0082
;WIDTH:0.538126
G1 X137.386 Y132.628 E.00761
;WIDTH:0.499999
G1 X137.386 Y133.119 E.01829
G1 X136.895 Y133.119 E.01829
;WIDTH:0.53219
G1 X136.455 Y133.103 E.01756
;WIDTH:0.564381
G1 X136.014 Y133.087 E.01872
G1 X132.971 Y133.087 E.1293
G1 X132.482 Y133.103 E.0208
;WIDTH:0.53219
G1 X131.993 Y133.119 E.01952
;WIDTH:0.499999
G1 X121.793 Y133.119 E.37991
;WIDTH:0.53219
G1 X121.304 Y133.103 E.01952
;WIDTH:0.564381
G1 X120.814 Y133.087 E.0208
G1 X117.771 Y133.087 E.1293
G1 X117.086 Y133.103 E.02915
;WIDTH:0.53219
G1 X116.4 Y133.119 E.02735
;WIDTH:0.499999
G1 X116.4 Y132.628 E.01829
;WIDTH:0.538127
G1 X116.419 Y132.368 E.01053
;WIDTH:0.576254
G1 X116.438 Y132.108 E.01134
;WIDTH:0.614381
G1 X116.457 Y131.848 E.01215
G1 X116.457 Y108.205 E1.10098
G1 X116.438 Y107.898 E.01434
;WIDTH:0.576254
G1 X116.419 Y107.59 E.01338
;WIDTH:0.538127
G1 X116.4 Y107.283 E.01242
;WIDTH:0.499999
G1 X116.4 Y106.733 E.02047
G1 X137.386 Y106.733 E.78164
G1 X137.386 Y106.851 E.00437
G1 E-3.5 F3600
;WIPE_START
G1 F900
G1 X137.386 Y107.283 E-.64843
G1 X137.367 Y107.59 E-.46186
G1 X137.351 Y107.85 E-.38972
;WIPE_END
G1 Z.6 F9000
G1 X136.928 Y132.572 Z.6
G1 Z.2
G1 E5 F2400
;WIDTH:0.567806
G1 F900
G1 X136.862 Y132.572 E.00281
G1 X136.829 Y132.628 E.00281
G1 X136.862 Y132.685 E.00281
G1 X136.928 Y132.685 E.00281
G1 X136.96 Y132.628 E.00281
G1 E-3.6878 F3600
;WIPE_START
G1 F900
G1 X136.928 Y132.685 E-.26244
G1 X136.862 Y132.685 E-.26244
G1 X136.829 Y132.628 E-.26244
G1 X136.862 Y132.572 E-.26244
G1 X136.928 Y132.572 E-.26244
;WIPE_END
G1 Z.6 F9000
G1 X115.943 Y106.276 Z.6
G1 Z.2
M73 P2 R85
G1 E5 F2400
;TYPE:Outer wall
;WIDTH:0.499999
G1 F900
G1 X137.843 Y106.276 E.81569
G1 X137.843 Y133.576 E1.01682
G1 X115.943 Y133.576 E.81569
G1 X115.943 Y106.316 E1.01533
G1 E-3.5 F3600
;WIPE_START
G1 F900
G1 X116.943 Y106.315 E-1.5
;WIPE_END
G1 Z.6 F9000
G1 X116.924 Y132.572 Z.6
G1 Z.2
G1 E5 F2400
;TYPE:Inner wall
;WIDTH:0.567802
G1 F900
G1 X116.858 Y132.572 E.00281
G1 X116.825 Y132.628 E.00281
G1 X116.858 Y132.685 E.00281
G1 X116.924 Y132.685 E.00281
G1 X116.957 Y132.628 E.00281
G1 E-3.6878 F3600
;WIPE_START
G1 F900
G1 X116.924 Y132.685 E-.26244
G1 X116.858 Y132.685 E-.26244
G1 X116.825 Y132.628 E-.26244
G1 X116.858 Y132.572 E-.26244
G1 X116.924 Y132.572 E-.26244
;WIPE_END
G1 Z.6 F9000
G1 X131.692 Y113.458
G1 Z.6
G1 Z.2
G1 E5 F2400
;TYPE:Bottom surface
;WIDTH:0.502936
G1 F1200
G1 X130.967 Y112.733 E.03841
G1 X130.317 Y112.733 E.02439
G1 X131.486 Y113.903 E.06199
G1 X131.486 Y114.553 E.02439
G1 X129.666 Y112.733 E.09648
G1 X129.015 Y112.733 E.02439
G1 X131.486 Y115.204 E.13097
G1 X131.486 Y115.854 E.02439
G1 X128.365 Y112.733 E.16546
G1 X127.714 Y112.733 E.02439
G1 X131.486 Y116.505 E.19994
G1 X131.486 Y117.156 E.02439
G1 X127.064 Y112.733 E.23443
G1 X126.413 Y112.733 E.02439
G1 X131.486 Y117.806 E.26892
G1 X131.486 Y118.457 E.02439
G1 X125.763 Y112.733 E.30341
G1 X125.112 Y112.733 E.02439
G1 X131.486 Y119.107 E.3379
G1 X131.486 Y119.758 E.02439
G1 X124.461 Y112.733 E.37238
G1 X123.811 Y112.733 E.02439
G1 X131.486 Y120.408 E.40687
G1 X131.486 Y121.059 E.02439
G1 X123.16 Y112.733 E.44136
G1 X122.51 Y112.733 E.02439
G1 X131.486 Y121.709 E.47585
G1 X131.486 Y122.36 E.02439
G1 X122.3 Y113.174 E.48698
G1 X122.3 Y113.825 E.02439
G1 X131.486 Y123.011 E.48698
G1 X131.486 Y123.661 E.02439
G1 X122.3 Y114.475 E.48698
G1 X122.3 Y115.126 E.02439
G1 X131.486 Y124.312 E.48698
G1 X131.486 Y124.962 E.02439
G1 X122.3 Y115.776 E.48698
G1 X122.3 Y116.427 E.02439
G1 X131.486 Y125.613 E.48698
G1 X131.486 Y126.263 E.02439
G1 X122.3 Y117.077 E.48698
G1 X122.3 Y117.728 E.02439
G1 X131.486 Y126.914 E.48698
G1 X131.486 Y127.565 E.02439
G1 X122.3 Y118.378 E.48698
G1 X122.3 Y119.029 E.02439
G1 X131.486 Y128.215 E.48698
G1 X131.486 Y128.866 E.02439
G1 X122.3 Y119.68 E.48698
G1 X122.3 Y120.33 E.02439
G1 X131.486 Y129.516 E.48698
G1 X131.486 Y130.167 E.02439
G1 X122.3 Y120.981 E.48698
G1 X122.3 Y121.631 E.02439
G1 X131.486 Y130.817 E.48698
G1 X131.486 Y131.468 E.02439
G1 X122.3 Y122.282 E.48698
G1 X122.3 Y122.932 E.02439
G1 X131.612 Y132.245 E.49366
G1 X131.637 Y132.319 E.00296
G1 X131.036 Y132.319 E.02251
G1 X122.3 Y123.583 E.46314
G1 X122.3 Y124.234 E.02439
G1 X130.386 Y132.319 E.42865
G1 X129.735 Y132.319 E.02439
G1 X122.3 Y124.884 E.39417
G1 X122.3 Y125.535 E.02439
G1 X129.085 Y132.319 E.35968
G1 X128.434 Y132.319 E.02439
G1 X122.3 Y126.185 E.32519
G1 X122.3 Y126.836 E.02439
G1 X127.784 Y132.319 E.2907
G1 X127.133 Y132.319 E.02439
G1 X122.3 Y127.486 E.25622
G1 X122.3 Y128.137 E.02439
G1 X126.482 Y132.319 E.22173
G1 X125.832 Y132.319 E.02439
G1 X122.3 Y128.787 E.18724
M73 P2 R84
G1 X122.3 Y129.438 E.02439
G1 X125.181 Y132.319 E.15275
G1 X124.531 Y132.319 E.02439
G1 X122.3 Y130.089 E.11826
G1 X122.3 Y130.739 E.02439
G1 X123.88 Y132.319 E.08378
G1 X123.23 Y132.319 E.02439
G1 X122.3 Y131.39 E.04929
G1 X122.3 Y131.866 E.01787
G1 X122.256 Y131.997 E.00515
G1 X122.785 Y132.525 E.02801
; stop printing object MSRC_case-Lower case.stl id:101468352494016 copy 0
; printing object MSRC_case-Upper case.stl id:101468335901568 copy 0
G1 E-3.5 F3600
;WIPE_START
G1 F1200
G1 X122.256 Y131.997 E-1.12076
G1 X122.3 Y131.866 E-.20615
G1 X122.3 Y131.751 E-.17309
;WIPE_END
G1 Z.6 F9000
G1 X100.793 Y122.556 Z.6
G1 Z.2
G1 E5 F2400
;TYPE:Support
;WIDTH:0.5
G1 F900
G1 X85.422 Y122.556 E.57251
G1 X85.422 Y114.424 E.30291
G1 X100.793 Y114.424 E.57251
G1 X100.793 Y122.488 E.30035
G1 X100.217 Y122.35 F9000
G1 F900
G1 X100.217 Y114.835 E.27992
G1 X99.709 Y114.835 E.01892
G1 X99.709 Y122.145 E.27226
G1 X99.201 Y122.145 E.01892
G1 X99.201 Y114.835 E.27226
G1 X98.694 Y114.835 E.01892
G1 X98.694 Y122.145 E.27226
G1 X98.186 Y122.145 E.01892
G1 X98.186 Y114.835 E.27226
G1 X97.678 Y114.835 E.01892
G1 X97.678 Y122.145 E.27226
G1 X97.17 Y122.145 E.01892
G1 X97.17 Y114.835 E.27226
G1 X96.662 Y114.835 E.01892
G1 X96.662 Y122.145 E.27226
G1 X96.154 Y122.145 E.01892
G1 X96.154 Y114.835 E.27226
